src/svg/uf207-bus.svg

<!-- Generated by IcoMoon.io -->
<svg version="1.1" xmlns="http://www.w3.org/2000/svg" width="27" height="32" viewBox="0 0 27 32">
<path d="M6.857 21.714c0-1.268-1.018-2.286-2.286-2.286s-2.286 1.018-2.286 2.286 1.018 2.286 2.286 2.286 2.286-1.018 2.286-2.286zM25.143 21.714c0-1.268-1.018-2.286-2.286-2.286s-2.286 1.018-2.286 2.286 1.018 2.286 2.286 2.286 2.286-1.018 2.286-2.286zM24.321 14.643l-1.286-6.857c-0.107-0.536-0.571-0.929-1.125-0.929h-16.393c-0.554 0-1.018 0.393-1.125 0.929l-1.286 6.857c-0.125 0.714 0.411 1.357 1.125 1.357h18.964c0.714 0 1.25-0.643 1.125-1.357zM20.286 3.714c0-0.482-0.375-0.857-0.857-0.857h-11.429c-0.464 0-0.857 0.375-0.857 0.857s0.393 0.857 0.857 0.857h11.429c0.482 0 0.857-0.375 0.857-0.857zM27.429 16.661v10.768h-2.286v2.286c0 1.268-1.018 2.286-2.286 2.286s-2.286-1.018-2.286-2.286v-2.286h-13.714v2.286c0 1.268-1.018 2.286-2.286 2.286s-2.286-1.018-2.286-2.286v-2.286h-2.286v-10.768c0-1.464 0.125-2.554 0.446-3.982l1.839-8.107c0.339-2.857 5.339-4.571 11.429-4.571s11.089 1.714 11.429 4.571l1.875 8.107c0.321 1.429 0.411 2.518 0.411 3.982z"></path>
</svg>

<svg xmlns="http://www.w3.org/2000/svg" width="27" height="32"><path d="M6.857 21.714c0-1.268-1.018-2.286-2.286-2.286s-2.286 1.018-2.286 2.286S3.303 24 4.571 24s2.286-1.018 2.286-2.286zm18.286 0c0-1.268-1.018-2.286-2.286-2.286s-2.286 1.018-2.286 2.286S21.589 24 22.857 24s2.286-1.018 2.286-2.286zm-.822-7.071l-1.286-6.857a1.148 1.148 0 0 0-1.125-.929H5.517c-.554 0-1.018.393-1.125.929l-1.286 6.857A1.147 1.147 0 0 0 4.231 16h18.964c.714 0 1.25-.643 1.125-1.357zM20.286 3.714a.846.846 0 0 0-.857-.857H8a.857.857 0 0 0 0 1.714h11.429a.846.846 0 0 0 .857-.857zm7.143 12.947v10.768h-2.286v2.286c0 1.268-1.018 2.286-2.286 2.286s-2.286-1.018-2.286-2.286v-2.286H6.857v2.286c0 1.268-1.018 2.286-2.286 2.286s-2.286-1.018-2.286-2.286v-2.286H-.001V16.661c0-1.464.125-2.554.446-3.982l1.839-8.107C2.623 1.715 7.623.001 13.713.001s11.089 1.714 11.429 4.571l1.875 8.107c.321 1.429.411 2.518.411 3.982z"/></svg>
